frontend/public/svg/interface/mute.svg

<svg width="158" height="127" viewBox="0 0 158 127" fill="none" xmlns="http://www.w3.org/2000/svg">
<g clip-path="url(#clip0)">
<path d="M6.18194 100.18C7.52284 100.552 8.90827 100.742 10.3004 100.744C16.4195 100.715 23.6116 100.373 30.6812 98.0817C31.243 98.4557 31.7878 98.8238 32.3211 99.1848C33.6362 100.074 34.8786 100.914 36.1716 101.699C51.6769 111.101 68.265 118.272 86.7845 126.013C87.3068 126.251 87.8706 126.383 88.4441 126.405C88.832 126.411 89.2141 126.31 89.547 126.111C90.2431 125.687 90.6265 124.861 90.7212 123.573C90.7465 122.886 90.8445 122.203 91.0145 121.537C94.4821 110.09 96.4868 100.622 97.3224 91.7401C97.6415 88.3356 98.0321 84.8763 98.4097 81.5305C99.0792 75.6086 99.7721 69.4848 100.096 63.4334C100.991 46.7925 99.837 29.9331 98.7224 13.6294C98.5842 11.6043 98.4473 9.57893 98.3111 7.55338C98.2248 6.07065 97.9672 4.60273 97.5429 3.17862C97.4106 2.65812 97.1693 2.17143 96.8332 1.75077C96.4978 1.33011 96.0761 0.985058 95.5967 0.738517C95.0556 0.517834 94.4743 0.413322 93.8898 0.431765C93.3059 0.450208 92.7317 0.591201 92.2062 0.845545C91.2714 1.23235 90.3021 1.59147 89.3647 1.94153C88.4616 2.27869 87.5585 2.6158 86.6665 2.9781C85.4695 3.46418 84.2661 3.93997 83.0646 4.41445C79.8856 5.67026 76.6029 6.9686 73.4668 8.4681C68.6569 10.7676 63.707 13.3883 58.755 16.2558C51.1755 20.6453 43.7776 25.0349 35.9444 29.683C32.8174 31.5383 29.6578 33.4108 26.4655 35.3006C25.9102 35.2826 25.4969 35.2974 25.2387 35.3135C23.6816 35.4109 22.1188 35.4952 20.5579 35.5803C16.6401 35.7931 12.5889 36.013 8.62048 36.4288C4.9524 36.8117 3.08073 38.7174 2.55134 42.606C2.40034 43.8344 2.31972 45.0702 2.30996 46.3077C2.10971 56.662 1.91354 67.0157 1.72107 77.3698L1.41602 93.5626C1.31683 95.0434 1.73768 96.5126 2.60678 97.7194C3.47588 98.9263 4.73952 99.7959 6.18194 100.18ZM85.3566 116.286C85.4215 116.876 85.4578 117.47 85.5019 118.163C78.7224 112.923 71.1073 107.146 62.7825 102.803C56.9696 99.7734 51.1552 96.679 45.5317 93.6948C43.2182 92.466 40.9317 91.2528 38.6719 90.055C38.718 87.4531 38.7807 84.8886 38.8423 82.3505C38.9922 76.2481 39.1338 70.4841 39.0372 64.6221C38.9437 58.7447 38.6185 52.982 38.2747 46.8815C38.1319 44.337 37.9875 41.7692 37.8584 39.1674C38.2257 38.9015 38.6063 38.6543 38.9988 38.4266C43.1387 36.0968 47.2808 33.771 51.425 31.4494C61.0176 26.0689 70.9366 20.506 80.6466 14.9515C82.9452 13.5787 85.1659 12.0799 87.2971 10.4621C88.0295 9.92828 88.7788 9.38102 89.5463 8.83498C89.5781 9.19941 89.5898 9.5652 89.582 9.93092C89.4042 14.5059 89.2343 19.0813 89.0708 23.6572C88.6536 35.0717 88.2229 46.875 87.6299 58.4694C87.0337 70.1379 86.1734 82.8127 84.9232 98.357C84.5035 104.334 84.6482 110.336 85.3566 116.285V116.286ZM30.1471 88.3073L30.0711 88.353C29.8301 88.5335 29.5526 88.6605 29.2576 88.7237C24.5015 88.7695 19.6613 88.7572 14.9792 88.7444L12.3296 88.7373C12.2216 88.7244 12.1148 88.7031 12.0103 88.6728L11.9733 88.6638C11.9583 88.5767 11.9429 88.4884 11.9273 88.3995C11.8228 87.8792 11.7579 87.3525 11.7328 86.8226C11.6463 82.7554 11.566 78.6881 11.4921 74.6196C11.3844 68.8846 11.2674 63.1495 11.1411 57.4141C11.0905 55.2519 10.9646 53.0593 10.844 50.9397C10.772 49.6858 10.7005 48.4319 10.6434 47.1767C10.6142 46.543 10.622 45.8938 10.6298 45.2086C10.6298 45.068 10.6329 44.9268 10.6342 44.7831L29.1157 43.6871C28.3696 57.0312 27.9478 72.6727 30.1458 88.3079L30.1471 88.3073Z" fill="black"/>
<path d="M155.658 77.1667C152.648 73.6417 149.534 70.1069 146.521 66.6889L144.331 64.2014C143.87 63.6773 143.38 63.1699 142.987 62.7683L144.327 61.3165C145.546 59.9975 146.713 58.7327 147.874 57.462C148.505 56.7744 149.139 56.0883 149.777 55.4036C151.375 53.6843 153.029 51.9063 154.556 50.0645C157.001 47.1177 157.352 44.4184 155.52 42.6604C154.463 41.6456 152.107 40.4827 148.195 44.1044C147.522 44.7278 146.866 45.3706 146.21 46.0133C145.836 46.3795 145.463 46.7456 145.086 47.1092L135.471 56.3448C135.341 56.2443 135.212 56.1463 135.082 56.0515C134.553 55.6512 134.097 55.305 133.669 54.9336C131.924 53.42 130.182 51.9032 128.443 50.3836C125.767 48.0499 123.086 45.7215 120.398 43.3985C119.227 42.3289 117.958 41.3704 116.607 40.5356C115.678 39.9415 114.572 39.6824 113.474 39.8019C112.375 39.9214 111.351 40.4121 110.574 41.1919C109.216 42.6694 109.121 44.7949 110.319 46.8785C110.927 47.9905 111.669 49.0245 112.53 49.9574C115.221 52.765 118.791 56.4564 122.531 60.1116C123.648 61.2037 124.861 62.1978 126.144 63.2512C126.554 63.586 126.972 63.9298 127.399 64.2826L127.238 64.4038C126.756 64.7355 126.309 65.114 125.902 65.5336C121.044 70.907 116.128 76.3905 111.37 81.6942L110.407 82.7676C110.099 83.0416 109.861 83.3852 109.713 83.7694C109.565 84.153 109.512 84.5669 109.558 84.975C109.704 85.6905 110.276 86.2753 111.309 86.7639C111.399 86.8065 111.497 86.8284 111.596 86.8284C111.703 86.8284 111.809 86.8032 111.903 86.7542C120.169 82.4762 127.139 76.5162 134.697 69.7311L135.892 70.5756C141.605 74.6138 147.206 78.5702 152.804 82.5336C152.907 82.6122 153.005 82.6986 153.096 82.7908C153.368 83.0957 153.723 83.3149 154.118 83.4219L154.216 83.4413C155.062 83.6037 156.117 83.8075 156.794 83.2975C157.15 82.9423 157.405 82.5001 157.533 82.0153C157.662 81.5305 157.658 81.0205 157.524 80.537C157.119 79.3077 156.487 78.1647 155.658 77.1667Z" fill="black"/>
</g>
<defs>
<clipPath id="clip0">
<rect width="157" height="127" fill="white" transform="translate(0.777344)"/>
</clipPath>
</defs>
</svg>

<svg xmlns="http://www.w3.org/2000/svg" width="158" height="127" fill="none" viewBox="0 0 158 127"><g fill="#000" clip-path="url(#a)"><path d="M6.182 100.18a15.5 15.5 0 0 0 4.118.564c6.12-.029 13.312-.371 20.381-2.662q.842.561 1.64 1.103c1.315.889 2.558 1.729 3.85 2.514 15.506 9.402 32.094 16.573 50.613 24.314.523.238 1.087.37 1.66.392.388.006.77-.095 1.103-.294.696-.424 1.08-1.25 1.174-2.538.025-.687.123-1.37.293-2.036 3.468-11.447 5.473-20.915 6.308-29.797.32-3.404.71-6.864 1.088-10.21.67-5.921 1.362-12.045 1.686-18.097.895-16.64-.259-33.5-1.374-49.804l-.41-6.076a19.2 19.2 0 0 0-.77-4.374 3.8 3.8 0 0 0-1.946-2.44 4.17 4.17 0 0 0-3.39.107c-.935.386-1.904.745-2.841 1.096-.903.337-1.806.674-2.698 1.036q-1.798.727-3.602 1.436c-3.18 1.256-6.462 2.555-9.598 4.054-4.81 2.3-9.76 4.92-14.712 7.788-7.58 4.39-14.977 8.779-22.81 13.427q-4.691 2.783-9.48 5.618a13 13 0 0 0-1.226.012c-1.557.098-3.12.182-4.681.267-3.918.213-7.97.433-11.938.849-3.668.383-5.54 2.288-6.069 6.177a32 32 0 0 0-.241 3.702q-.3 15.531-.589 31.062l-.305 16.193a6.38 6.38 0 0 0 1.19 4.156 6.45 6.45 0 0 0 3.576 2.461m79.175 16.106c.064.59.1 1.184.145 1.877-6.78-5.24-14.395-11.017-22.72-15.36-5.812-3.03-11.627-6.124-17.25-9.108q-3.47-1.843-6.86-3.64c.046-2.602.109-5.166.17-7.705.15-6.102.292-11.866.195-17.728-.093-5.877-.419-11.64-.762-17.74-.143-2.545-.288-5.113-.417-7.715q.552-.4 1.14-.74 6.21-3.495 12.427-6.978c9.593-5.38 19.512-10.943 29.222-16.498a72 72 0 0 0 6.65-4.489c.733-.534 1.482-1.081 2.25-1.627q.047.547.035 1.096-.267 6.862-.511 13.726c-.417 11.415-.848 23.218-1.441 34.812-.596 11.669-1.457 24.344-2.707 39.888a95 95 0 0 0 .434 17.928zm-55.21-27.979-.076.046c-.24.18-.518.308-.813.37-4.756.046-9.597.034-14.279.021l-2.65-.007a2 2 0 0 1-.319-.064l-.037-.01-.046-.263q-.157-.781-.194-1.577-.13-6.101-.24-12.203-.163-8.602-.352-17.206c-.05-2.162-.176-4.355-.297-6.474a317 317 0 0 1-.2-3.763c-.03-.634-.022-1.283-.014-1.968l.004-.426 18.482-1.096c-.746 13.344-1.168 28.986 1.03 44.62zm125.511-11.14c-3.01-3.525-6.124-7.06-9.137-10.478l-2.19-2.488a38 38 0 0 0-1.344-1.433l1.34-1.452a917 917 0 0 0 3.547-3.854q.946-1.032 1.903-2.058c1.598-1.72 3.252-3.498 4.779-5.34 2.445-2.946 2.796-5.646.964-7.404-1.057-1.014-3.413-2.177-7.325 1.444-.673.624-1.329 1.267-1.985 1.91q-.56.549-1.124 1.095l-9.615 9.236q-.194-.15-.389-.294c-.529-.4-.985-.746-1.413-1.117q-2.617-2.27-5.226-4.55a2373 2373 0 0 0-8.045-6.986 25.5 25.5 0 0 0-3.791-2.862 4.844 4.844 0 0 0-6.033.656c-1.358 1.477-1.453 3.603-.255 5.687a15.5 15.5 0 0 0 2.211 3.078c2.691 2.808 6.261 6.5 10.001 10.155 1.117 1.092 2.33 2.086 3.613 3.14q.615.502 1.255 1.03l-.161.122q-.724.499-1.336 1.13c-4.858 5.373-9.774 10.856-14.532 16.16l-.963 1.074a2.6 2.6 0 0 0-.694 1.001 2.56 2.56 0 0 0-.155 1.206c.146.716.718 1.3 1.751 1.789a.67.67 0 0 0 .594-.01c8.266-4.278 15.236-10.238 22.794-17.023l1.195.845c5.713 4.038 11.314 7.994 16.912 11.958q.155.118.292.257c.272.305.627.524 1.022.63l.098.02c.846.163 1.901.367 2.578-.144a2.83 2.83 0 0 0 .73-2.76 10.3 10.3 0 0 0-1.866-3.37"/></g><defs><clipPath id="a"><path fill="#fff" d="M.777 0h157v127h-157z"/></clipPath></defs></svg>
